X: 96
T:Pasacorredoiras de Campañó
M:2/4
L:1/8
Q:300
C:Trad.
R:Pasacorredoiras
K:C
E{C}E {F}EC| ECEF | GE GE | AG FE |DG DB,| CD EF | 
GF ED | {B,}C4| E{C}E {F}EC | EC EF | Gc GE | FA FD | EG EC | DF DB, |C4
-|C4|
EF {C}FD | EF {C}FD | EC EC |DE FD |AG EC | EF DB,| "W"D2 C2 |{B,}C2 G2|
 c2 G2 | "W"E2 CE|
AG FE |D3 E |FE FD/2"F."c/2 | DB, DA| GF ED | {B,}C2 {B,}C2| c2G2 | "W"E
2 CE | AG FE | DE FG |
cG EC | EF DB, | C4- |C4||

